!!!!SEGMENT: pl-wn--sd-xvi-qu-273--044_gomolka-mikolaj--o-panie-w-swoje-wlasne-uszysmy-slychali.krn
!!!cenid: 15xx:249
!!!COM: Gomółka, Mikołaj
!!!COM-rismid: pe30013343
!!!CDT: ~1535->1591/04/30
!!!CNT: Polish
!!!GTL: Melodiae na psalterz polski
!!!OTL: XLIV. O Panie, w swoje własne uszysmy słychali,
!!!PDT: 1580
!!!AGN: Sacred
!!!SMS-siglum: PL-Wn
!!!SMS-shelfmark: SD XVI.Qu.273
!!!SMS-shelfwork: 044 G
!!!NIFC-rismid:
!!!ONB-nifc: Melodiae na psalterz polski
**kern	**text	**kern	**text	**kern	**text	**kern	**text
*part4	*part4	*part3	*part3	*part2	*part2	*part1	*part1
*staff4	*staff4	*staff3	*staff3	*staff2	*staff2	*staff1	*staff1
*clefF4	*	*clefC3	*	*clefC2	*	*clefC1	*
*k[]	*	*k[]	*	*k[]	*	*k[]	*
*d:	*	*d:	*	*d:	*	*d:	*
*M4/2	*	*M4/2	*	*M4/2	*	*M4/2	*
*met(C|)	*	*met(C|)	*	*met(C|)	*	*met(C|)	*
=-	=-	=-	=-	=-	=-	=-	=-
1.D	O	1.d	O	1.f	O	1.a	O
2A	Pá-	2c#X	Pá-	2e/	Pá-	2a	Pá-
=3-	=3-	=3-	=3-	=3-	=3-	=3-	=3-
2A	-nie/	2c	-nie/	2e/	-nie/	2a	-nie/
1F	w_ʃwo-	1f	w_ʃwo-	1a	w_ʃwo-	1cc	w_ʃwo-
2F	-ie	2f	-ie	2a	-ie	2a	-ie
=4-	=4-	=4-	=4-	=4-	=4-	=4-	=4-
2C	właʃ-	2e	właʃ-	2.g	właʃ-	2cc	właʃ-
2D/	-né	4d	-né	.	.	2b	-né
.	.	4c	.	4f	-né	.	.
2E	u-	4B	u-	4e	u-	2b	u-
.	.	4A	.	4d	.	.	.
2E	-ʃᴣyʃ-	2B	-ʃᴣyʃ-	2e/	-ʃᴣyʃ-	2g#X/	-ʃᴣyʃ-
=5-	=5-	=5-	=5-	=5-	=5-	=5-	=5-
2C#X	-my	2A	-my	2e/	-my	2.a	-my
2.D/	ʃły-	2d	ʃły-	2.f	ʃły-	.	.
.	.	.	.	.	.	4g/	ʃły-
.	.	1d	-chá-	.	.	1f	-chá-
4E	.	.	.	4g	.	.	.
4F	-chá-	.	.	2a	-chá-	.	.
4G	.	.	.	.	.	.	.
=6-	=6-	=6-	=6-	=6-	=6-	=6-	=6-
2A	-li	2.c#X	-li	2.A	-li	2e	-li
2AA	Oy-	.	.	.	.	2a	Oy-
.	.	4d	Oy-	4B	Oy-	.	.
2AA	-co-	2e	-co-	2c#X	-co-	2a	-co-
2D/	-wie	2f	-wie	2d	-wie	2a	-wie
!!LO:PB:g=original
=7-	=7-	=7-	=7-	=7-	=7-	=7-	=7-
2GG	ieʃᴣ-	2.g	ieʃᴣ-	2d	ieʃᴣ-	1b	ieʃᴣ-
2GG	.	.	.	2d	.	.	.
.	.	4f	.	.	.	.	.
2C	-cӡe	2.e	-cӡe	2G	-cӡe	2g	-cӡe
2C	.	.	.	2g	ná-	2cc	ná-
.	.	4d	.	.	.	.	.
=8-	=8-	=8-	=8-	=8-	=8-	=8-	=8-
4AA	ná-	1c	ná-	4a	.	1cc	.
4BB	.	.	.	4g	.	.	.
4C	.	.	.	4e	.	.	.
4D	.	.	.	4f	.	.	.
2E	-ʃᴣy	2.G	-ʃᴣy	2g	-ʃᴣy	1b	-ʃᴣy_nam
2EE	nam	.	.	2e	nam	.	.
.	.	4A	nam	.	.	.	.
=9-	=9-	=9-	=9-	=9-	=9-	=9-	=9-
2EE	o-	2B	o-	2e	o-	2g#X	o-
2EE	-po-	2B	-po-	2e	-po-	2g#X	-po-
1AA	-wiá-	1c	-wiá-	2e	-wiá-	1a	-wiá-
.	.	.	.	1e	-dá-	.	.
=10-	=10-	=10-	=10-	=10-	=10-	=10-	=10-
1D	-dá-	2.A	-dá-	.	.	2a	-dá-
.	.	.	.	2d	.	4f	.
.	.	4B	.	.	.	4g	.
!!LO:N:vis=00
1AA/	-li	1c#X	-li	1e	-li	1a	-li
=-=-	=-	=-	=-	=-	=-	=-	=-
*-	*-	*-	*-	*-	*-	*-	*-
!!!RDF**kern: l = terminal long
!!!system-decoration: s1,s2,s3,s4
!!!ENC:Anna Matuszewska
!!!END:2020-02-08
!!!URL-scan: https://polona.pl/item/melodiae-ná-psalterz-polski,Nzk3MTM4ODQ/109 Scan on Polona
!!!IIIF: https://polona.pl/iiif/item/Nzk3MTM4ODQ/manifest.json
